src/main/webapp/scripts/pdfjs/v54530/web/images/secondaryToolbarButton-spreadOdd.svg

<svg fill="none" height="16" viewBox="0 0 16 16" width="16" xmlns="http://www.w3.org/2000/svg"><path d="m1.5 4c0-.27579.22421-.5.5-.5h5.25v9.5h-5.25c-.27579 0-.5-.2242-.5-.5zm7.25 9v-9.5h5.25c.2758 0 .5.22421.5.5v8.5c0 .2758-.2242.5-.5.5zm-6.75-11c-1.104214 0-2 .89579-2 2v8.5c0 1.1042.895786 2 2 2h12c1.1042 0 2-.8958 2-2v-8.5c0-1.10421-.8958-2-2-2zm2.75 3h-1.75v1.5h1v5h1.5v-5.75c0-.41421-.33579-.75-.75-.75zm5.25 1.5h1.5v.78647l-1.0854.54271c-.2541.12704-.4146.38674-.4146.67082v2.25c0 .4142.3358.75.75.75h2.25v-1.5h-1.5v-1.03647l1.0854-.54271c.2541-.12704.4146-.38674.4146-.67082v-2c0-.41421-.3358-.75-.75-.75h-2.25z" fill="#000"/></svg>

<svg width="16" height="16" viewBox="0 0 16 16" fill="none" xmlns="http://www.w3.org/2000/svg">
<path d="M1.5 4C1.5 3.72421 1.72421 3.5 2 3.5H7.25V13H2C1.72421 13 1.5 12.7758 1.5 12.5V4ZM8.75 13V3.5H14C14.2758 3.5 14.5 3.72421 14.5 4V12.5C14.5 12.7758 14.2758 13 14 13H8.75ZM2 2C0.895786 2 0 2.89579 0 4V12.5C0 13.6042 0.895786 14.5 2 14.5H14C15.1042 14.5 16 13.6042 16 12.5V4C16 2.89579 15.1042 2 14 2H2ZM4.75 5H3V6.5H4V11.5H5.5V5.75C5.5 5.33579 5.16421 5 4.75 5ZM10 6.5H11.5V7.28647L10.4146 7.82918C10.1605 7.95622 10 8.21592 10 8.5V10.75C10 11.1642 10.3358 11.5 10.75 11.5H13V10H11.5V8.96353L12.5854 8.42082C12.8395 8.29378 13 8.03408 13 7.75V5.75C13 5.33579 12.6642 5 12.25 5H10V6.5Z" fill="black"/>
</svg>
